X:1
T:Bristol
T:Hodges
T:Bristol
C:Hodges
%%score { ( 1 2 ) | ( 3 4 ) }
L:1/8
Q:1/2=120
M:4/2
K:Bb
V:1 treble nm="Piano" snm="Pno."
V:2 treble 
V:3 bass 
V:4 bass 
V:1
 F4 | B4 d4 G4 e4 | d4 c4 B4 f4 | d4 (c2 B2) A4 G4 | F12 d4 | f4 B4 d4 G4 | B4 (c2 d2) e4 c4 | %7
 B4 d4 d4 c4 | B12 |] %9
V:2
 D4 | F4 F4 E4 E4 | F4 E4 D4 F4 | F4 G4 F4 =E4 | F12 F4 | F4 G4 D4 E4 | F4 F4 F4 F4 | F4 F4 F4 E4 | %8
 D12 |] %9
V:3
 B,4 | B,4 B,4 B,4 C4 | B,4 A,4 B,4 C4 | B,4 D4 C4 B,4 | A,12 B,4 | C4 D4 A,4 B,4 | %6
 B,4 (A,2 B,2) C4 A,4 | B,4 B,4 B,4 A,4 | B,12 |] %9
V:4
 B,,4 | D,4 B,,4 E,4 C,4 | F,4 F,,4 B,,4 A,,4 | B,,4 B,,4 C,4 C,4 | F,12 B,4 | A,4 G,4 F,4 E,4 | %6
 D,4 (C,2 B,,2) A,,4 E,4 | D,4 B,,4 F,4 F,,4 | B,,12 |] %9

